X: 872
T: The Charming Young Widow
N:"Collected by F.O'Neill"
B:O'Neill's 872
Z:Transcribed by Dan G. Petersen, dangp@post6.tele.dk
M:6/8
L:1/8
K:D
A|Add dcd|efg afd|Add dcd|edc d2c|
Add dcd|efg aga|bab afd|{a}gec d2:|
A|dfa afd|Bgd gec|dcd Bgd|edc d2A|
dfa afd|Bgd gec|dBF DFA|Bec d2:|


